openframe-frontend-core/src/components/icons-v2/brand-logos/djinni-logo.svg

<svg width="24" height="24" viewBox="0 0 24 24" fill="none" xmlns="http://www.w3.org/2000/svg">
<path d="M16.7982 5.75533C16.7982 6.72476 15.9751 7.51065 14.9596 7.51065C13.9442 7.51065 13.1211 6.72476 13.1211 5.75533C13.1211 4.78589 13.9442 4 14.9596 4C15.9751 4 16.7982 4.78589 16.7982 5.75533Z" fill="#888888"/>
<path d="M22 16.0304C22 16.9998 21.1768 17.7857 20.1614 17.7857C19.146 17.7857 18.3229 16.9998 18.3229 16.0304C18.3229 15.061 19.146 14.2751 20.1614 14.2751C21.1768 14.2751 22 15.061 22 16.0304Z" fill="#888888"/>
<path d="M13.3004 9.05191H16.4395V17.3576C16.4395 20.0548 14.6906 21.5961 11.148 20.7826C12.7623 19.9264 13.3004 18.6848 13.3004 17.3576V9.05191Z" fill="#888888"/>
<path d="M7.73991 6.9969C7.73991 6.14064 8.90583 5.54126 10.8789 5.54126V17.7857H8.27803L7.73991 16.9295V6.9969Z" fill="#888888"/>
<path d="M5.63229 8.79503C6.84305 8.79503 7.73991 9.65129 7.73991 9.65129V11.6703C7.73706 11.6675 7.33159 11.2782 6.78489 11.2782C5.72197 11.2782 5.13901 11.8468 5.13901 13.3564C5.13902 14.8661 5.58745 15.4738 6.78489 15.4738C7.55703 15.4738 7.73991 15.0229 7.73991 15.0229V16.9723C7.73991 16.9723 7.33632 17.957 5.63229 17.957C3.92825 17.957 2 16.6298 2 13.3332C2 10.0366 4.42152 8.79503 5.63229 8.79503Z" fill="#888888"/>
</svg>

<svg xmlns="http://www.w3.org/2000/svg" width="24" height="24" fill="none" viewBox="0 0 24 24">
  <path fill="#888" d="M16.798 5.755c0 .97-.823 1.756-1.838 1.756-1.016 0-1.839-.786-1.839-1.756S13.944 4 14.96 4c1.015 0 1.838.786 1.838 1.755ZM22 16.03c0 .97-.823 1.756-1.839 1.756-1.015 0-1.838-.786-1.838-1.756 0-.969.823-1.755 1.838-1.755 1.016 0 1.839.786 1.839 1.755Zm-8.7-6.978h3.14v8.306c0 2.697-1.75 4.238-5.292 3.425 1.614-.857 2.152-2.098 2.152-3.425V9.052ZM7.74 6.997c0-.856 1.166-1.456 3.139-1.456v12.245H8.278l-.538-.857V6.998ZM5.632 8.795c1.211 0 2.108.856 2.108.856v2.02c-.003-.003-.408-.393-.955-.393-1.063 0-1.646.569-1.646 2.078 0 1.51.448 2.118 1.646 2.118.772 0 .955-.451.955-.451v1.95s-.404.984-2.108.984C3.928 17.957 2 16.63 2 13.333c0-3.296 2.422-4.538 3.632-4.538Z"/>
</svg>
